;FLAVOR:Marlin
;TIME:7196
;Filament used: 6.52826m
;Layer height: 0.28
;MINX:53.098
;MINY:63.049
;MINZ:0.28
;MAXX:166.037
;MAXY:156.951
;MAXZ:14.28
;Generated with Creality Slicer 4.8.2-177
M140 S65
M105
M190 S65
M104 S200
M105
M109 S200
M82 ;absolute extrusion mode
M201 X500.00 Y500.00 Z100.00 E5000.00 ;Setup machine max acceleration
M203 X500.00 Y500.00 Z10.00 E50.00 ;Setup machine max feedrate
M204 P500.00 R1000.00 T500.00 ;Setup Print/Retract/Travel acceleration
M205 X8.00 Y8.00 Z0.40 E5.00 ;Setup Jerk
M220 S100 ;Reset Feedrate
M221 S100 ;Reset Flowrate

G28 ;Home

G92 E0 ;Reset Extruder
G1 Z2.0 F3000 ;Move Z Axis up
G1 X10.1 Y20 Z0.28 F5000.0 ;Move to start position
G1 X10.1 Y200.0 Z0.28 F1500.0 E15 ;Draw the first line
G1 X10.4 Y200.0 Z0.28 F5000.0 ;Move to side a little
G1 X10.4 Y20 Z0.28 F1500.0 E30 ;Draw the second line
G92 E0 ;Reset Extruder
G1 Z2.0 F3000 ;Move Z Axis up

G92 E0
G92 E0
G1 F2700 E-5
;LAYER_COUNT:51
;LAYER:0
M107
;MESH:servo-plate.stl
G0 F6000 X162.886 Y103.345 Z0.28
;TYPE:WALL-INNER
G1 F2700 E0
G1 F1200 X163.395 Y103.556 E0.02566
G1 X163.939 Y103.627 E0.0512
G1 X164.483 Y103.556 E0.07675
G1 X164.991 Y103.346 E0.10234
G1 X165.276 Y103.127 E0.11908
G1 X165.428 Y103.011 E0.12798
G1 X165.637 Y102.738 E0.14399
G1 X165.637 Y103.011 E0.14667
G1 X165.637 Y103.203 E0.15371
G1 X165.637 Y133.202 E1.55059
G1 X160.479 Y133.202 E1.79077
G1 X160.465 Y133.202 E1.79142
G1 X160.174 Y133.202 E1.80497
G1 X160.465 Y132.823 E1.81872
G1 X160.47 Y132.811 E1.81931
G1 X160.674 Y132.315 E1.84429
G1 X160.747 Y131.771 E1.86984
G1 X160.674 Y131.227 E1.8954
G1 X160.465 Y130.718 E1.92102
G1 X160.129 Y130.283 E1.94662
G1 X159.694 Y129.948 E1.97218
G1 X159.185 Y129.737 E1.99784
G1 X158.641 Y129.666 E2.02339
G1 X158.174 Y129.727 E2.04532
G1 X158.096 Y129.737 E2.04898
G1 X157.837 Y129.845 E2.06204
G1 X157.837 Y129.737
G1 X157.837 Y129.658 E2.06524
G1 X157.837 Y114.419 E2.77483
G1 X163.837 Y114.419 E3.05422
G1 X163.837 Y110.219 E3.24979
G1 X157.837 Y110.219 E3.52917
G1 X157.837 Y106.219 E3.71543
G1 X149.837 Y106.219 E4.08794
G1 X149.837 Y93.969 E4.65835
G1 X121.533 Y93.969 E5.97631
G1 X121.533 Y102.919 E6.39306
G1 X133.637 Y102.919 E6.95667
G1 X133.637 Y110.219 E7.29659
G1 X127.637 Y110.219 E7.57597
G1 X127.637 Y114.419 E7.77154
G1 X133.637 Y114.419 E8.05093
G1 X133.637 Y130.419 E8.79595
G1 X156.744 Y130.419 E9.87191
G1 X156.818 Y130.419 E9.87536
G1 X157.048 Y130.419 E9.88607
G1 X156.818 Y130.718 E9.89565
G1 X156.79 Y130.786 E9.89872
G1 X156.607 Y131.227 E9.92095
G1 X156.536 Y131.771 E9.94649
G1 X156.607 Y132.315 E9.97204
G1 X156.812 Y132.811 E9.99703
G1 X156.817 Y132.823 E9.99764
G1 X157.108 Y133.202 E10.01989
G1 X156.817 Y133.202 E10.02495
G1 X156.803 Y133.202 E10.02559
G1 X120.333 Y133.202 E11.72379
G1 X120.333 Y145.813 E12.31101
G1 X120.333 Y145.82 E12.31133
G1 X120.333 Y146.118 E12.32521
G1 X119.944 Y145.82 E12.33954
G1 X119.938 Y145.818 E12.33984
G1 X119.436 Y145.61 E12.36514
G1 X118.892 Y145.539 E12.39068
G1 X118.348 Y145.61 E12.41623
G1 X117.84 Y145.82 E12.44183
G1 X117.403 Y146.155 E12.46747
G1 X117.069 Y146.592 E12.49308
G1 X116.858 Y147.099 E12.51865
G1 X116.787 Y147.644 E12.54424
G1 X116.858 Y148.188 E12.56978
G1 X117.069 Y148.697 E12.59544
G1 X117.403 Y149.132 E12.62098
G1 X117.839 Y149.467 E12.64658
G1 X118.348 Y149.678 E12.67224
G1 X118.892 Y149.749 E12.69778
G1 X119.436 Y149.678 E12.72333
G1 X119.938 Y149.47 E12.74863
G1 X119.945 Y149.467 E12.74899
G1 X120.333 Y149.169 E12.77177
G1 X120.333 Y149.467 E12.77714
G1 X120.333 Y149.475 E12.77751
G1 X120.333 Y155.686 E13.06672
G1 X73.955 Y155.686 E15.22627
G1 X73.955 Y110.719 E17.32012
G1 X54.363 Y110.719 E18.23241
G1 X54.363 Y92.32 E19.08914
G1 X54.363 Y92.307 E19.08975
G1 X54.363 Y91.872 E19.11
G1 X54.363 Y91.75 E19.11569
G1 X54.413 Y91.872 E19.11636
G1 X54.749 Y92.307 E19.13209
G1 X54.759 Y92.314 E19.13265
G1 X55.184 Y92.642 E19.15765
G1 X55.693 Y92.853 E19.18331
G1 X56.237 Y92.924 E19.20886
G1 X56.782 Y92.853 E19.23445
G1 X57.29 Y92.642 E19.26006
G1 X57.726 Y92.307 E19.28566
G1 X58.06 Y91.872 E19.3112
G1 X58.271 Y91.363 E19.33686
G1 X58.342 Y90.819 E19.3624
G1 X58.271 Y90.274 E19.388
G1 X58.06 Y89.767 E19.41357
G1 X57.726 Y89.33 E19.43918
G1 X57.289 Y88.996 E19.46479
G1 X56.782 Y88.785 E19.49036
G1 X56.237 Y88.714 E19.51595
G1 X55.693 Y88.785 E19.5415
G1 X55.184 Y88.996 E19.56716
G1 X54.759 Y89.323 E19.59212
G1 X54.749 Y89.33 E19.59269
G1 X54.413 Y89.767 E19.61836
G1 X54.363 Y89.888 E19.62446
G1 X54.363 Y89.767 E19.6247
G1 X54.363 Y89.33 E19.63516
G1 X54.363 Y89.317 E19.63576
G1 X54.363 Y64.314 E20.80001
G1 X165.637 Y64.314 E25.98139
G1 X165.637 Y65.957 E26.05789
G1 X165.637 Y66.103 E26.06469
G1 X165.637 Y66.435 E26.08015
G1 X165.382 Y66.103 E26.08836
G1 X165.267 Y66.015 E26.09401
G1 X164.947 Y65.769 E26.1128
G1 X164.438 Y65.558 E26.13846
G1 X163.894 Y65.487 E26.16401
G1 X163.35 Y65.558 E26.18955
G1 X162.842 Y65.768 E26.21515
G1 X162.405 Y66.103 E26.24079
G1 X162.07 Y66.54 E26.26643
G1 X161.86 Y67.048 E26.29202
G1 X161.789 Y67.592 E26.31757
G1 X161.86 Y68.136 E26.34311
G1 X162.071 Y68.645 E26.36877
G1 X162.405 Y69.08 E26.39431
G1 X162.841 Y69.415 E26.41991
G1 X163.35 Y69.626 E26.44557
G1 X163.894 Y69.697 E26.47111
G1 X164.438 Y69.626 E26.49666
G1 X164.947 Y69.415 E26.52232
G1 X165.267 Y69.169 E26.54111
G1 X165.382 Y69.08 E26.54788
G1 X165.637 Y68.749 E26.56734
G1 X165.637 Y69.08 E26.57152
G1 X165.637 Y69.226 E26.57722
G1 X165.637 Y99.842 E28.00283
G1 X165.637 Y100.034 E28.01177
G1 X165.637 Y100.306 E28.02444
G1 X165.428 Y100.034 E28.03041
G1 X165.276 Y99.917 E28.03742
G1 X164.991 Y99.698 E28.05416
G1 X164.483 Y99.489 E28.07974
G1 X163.939 Y99.416 E28.1053
G1 X163.395 Y99.489 E28.13085
G1 X162.886 Y99.698 E28.15648
G1 X162.451 Y100.034 E28.18207
G1 X162.116 Y100.469 E28.20764
G1 X161.905 Y100.978 E28.23329
G1 X161.834 Y101.522 E28.25884
G1 X161.905 Y102.067 E28.28443
G1 X162.116 Y102.575 E28.31004
G1 X162.451 Y103.011 E28.33565
G1 X162.886 Y103.345 E28.36118
G0 F6000 X163.088 Y102.996
;TYPE:WALL-OUTER
G1 F1200 X163.499 Y103.166 E28.38189
G1 X163.939 Y103.224 E28.40256
G1 X164.379 Y103.166 E28.42323
G1 X164.79 Y102.996 E28.44394
G1 X165.143 Y102.726 E28.46463
G1 X165.413 Y102.373 E28.48532
G1 X165.583 Y101.963 E28.50599
G1 X165.641 Y101.522 E28.5267
G1 X165.583 Y101.082 E28.54737
G1 X165.413 Y100.671 E28.56808
G1 X165.143 Y100.319 E28.58874
G1 X164.79 Y100.048 E28.60946
G1 X164.379 Y99.879 E28.63015
G1 X163.939 Y99.82 E28.65082
G1 X163.499 Y99.879 E28.67149
G1 X163.088 Y100.048 E28.69219
G1 X162.736 Y100.319 E28.71287
G1 X162.465 Y100.671 E28.73356
G1 X162.295 Y101.082 E28.75427
G1 X162.237 Y101.522 E28.77493
G1 X162.295 Y101.963 E28.79565
G1 X162.465 Y102.373 E28.81631
G1 X162.736 Y102.726 E28.83704
G1 X163.088 Y102.996 E28.85769
G0 F6000 X162.869 Y103.377
G1 F2700 E23.85769
G0 F6000 X162.344 Y102.444
G0 X162.16 Y102
G0 X162.097 Y101.522
G0 X162.16 Y101.045
G0 X162.933 Y99.491
G0 X165.444 Y99.803
G0 X165.444 Y69.276
G0 X163.429 Y69.433
G0 X163.454 Y69.236
G1 F2700 E28.85769
G1 F1200 X163.894 Y69.294 E28.87836
G1 X164.334 Y69.236 E28.89902
G1 X164.745 Y69.066 E28.91973
G1 X165.097 Y68.795 E28.94042
G1 X165.368 Y68.443 E28.9611
G1 X165.538 Y68.032 E28.98182
G1 X165.596 Y67.592 E29.00248
G1 X165.538 Y67.152 E29.02315
G1 X165.368 Y66.741 E29.04386
G1 X165.097 Y66.388 E29.06458
G1 X164.745 Y66.118 E29.08524
G1 X164.334 Y65.948 E29.10595
G1 X163.894 Y65.89 E29.12661
G1 X163.454 Y65.948 E29.14728
G1 X163.043 Y66.118 E29.16799
G1 X162.69 Y66.388 E29.18868
G1 X162.42 Y66.741 E29.20938
G1 X162.25 Y67.152 E29.23009
G1 X162.192 Y67.592 E29.25075
G1 X162.25 Y68.032 E29.27142
G1 X162.42 Y68.443 E29.29213
G1 X162.69 Y68.795 E29.31278
G1 X163.043 Y69.066 E29.33351
G1 X163.454 Y69.236 E29.35422
G0 F6000 X163.341 Y69.661
G1 F2700 E24.35422
G0 F6000 X162.735 Y69.598
G0 X163.48 Y68.313
G0 X150.957 Y77.904
G0 X152.226 Y77.171
G0 X152.016 Y78.796
G0 X151.832 Y79.241
G0 X151.54 Y79.621
G0 X151.159 Y79.914
G0 X149.693 Y80.353
;TYPE:WALL-INNER
G1 F2700 E29.35422
G1 F1200 X150.237 Y80.424 E29.37976
G1 X150.782 Y80.353 E29.40536
G1 X151.29 Y80.142 E29.43097
G1 X151.726 Y79.807 E29.45657
G1 X152.06 Y79.372 E29.48211
G1 X152.271 Y78.863 E29.50777
G1 X152.342 Y78.319 E29.53331
G1 X152.271 Y77.774 E29.5589
G1 X152.06 Y77.267 E29.58447
G1 X151.726 Y76.83 E29.61009
G1 X151.289 Y76.496 E29.6357
G1 X150.782 Y76.285 E29.66127
G1 X150.237 Y76.214 E29.68686
G1 X149.693 Y76.285 E29.71241
G1 X149.184 Y76.496 E29.73806
G1 X148.749 Y76.83 E29.7636
G1 X148.413 Y77.267 E29.78927
G1 X148.204 Y77.774 E29.8148
G1 X148.131 Y78.319 E29.84041
G1 X148.204 Y78.863 E29.86597
G1 X148.413 Y79.372 E29.89159
G1 X148.749 Y79.807 E29.91718
G1 X149.184 Y80.142 E29.94275
G1 X149.693 Y80.353 E29.9684
G0 F6000 X149.797 Y79.963
;TYPE:WALL-OUTER
G1 F1200 X150.237 Y80.021 E29.98907
G1 X150.678 Y79.963 E30.00978
G1 X151.088 Y79.793 E30.03045
G1 X151.441 Y79.522 E30.05117
G1 X151.711 Y79.17 E30.07183
G1 X151.881 Y78.759 E30.09254
G1 X151.939 Y78.319 E30.1132
G1 X151.881 Y77.878 E30.13392
G1 X151.711 Y77.468 E30.15458
G1 X151.441 Y77.115 E30.17528
G1 X151.088 Y76.845 E30.19597
G1 X150.678 Y76.675 E30.21664
G1 X150.237 Y76.617 E30.23735
G1 X149.797 Y76.675 E30.25802
G1 X149.386 Y76.845 E30.27873
G1 X149.034 Y77.115 E30.29938
G1 X148.763 Y77.468 E30.32011
G1 X148.594 Y77.878 E30.34075
G1 X148.535 Y78.319 E30.36147
G1 X148.594 Y78.759 E30.38214
G1 X148.763 Y79.17 E30.40284
G1 X149.034 Y79.522 E30.42352
G1 X149.386 Y79.793 E30.44421
G1 X149.797 Y79.963 E30.46492
G0 F6000 X149.684 Y80.388
G1 F2700 E25.46492
G0 F6000 X150.237 Y80.616
G0 X150.237 Y79.149
G0 X150.237 Y88.489
G0 X150.237 Y87.022
G0 X148.935 Y88.016
G0 X148.642 Y88.398
G0 X148.459 Y88.841
G0 X148.395 Y89.319
G0 X148.459 Y89.796
G0 X148.641 Y90.238
G0 X149.693 Y91.353
;TYPE:WALL-INNER
G1 F2700 E30.46492
G1 F1200 X150.237 Y91.424 E30.49046
G1 X150.782 Y91.353 E30.51606
G1 X151.29 Y91.142 E30.54167
G1 X151.726 Y90.807 E30.56727
G1 X152.06 Y90.372 E30.59281
G1 X152.271 Y89.863 E30.61847
G1 X152.342 Y89.319 E30.64401
G1 X152.271 Y88.774 E30.6696
G1 X152.06 Y88.267 E30.69518
G1 X151.726 Y87.83 E30.72079
G1 X151.289 Y87.496 E30.7464
G1 X150.782 Y87.285 E30.77197
G1 X150.237 Y87.214 E30.79756
G1 X149.693 Y87.285 E30.82311
G1 X149.184 Y87.496 E30.84876
G1 X148.749 Y87.83 E30.8743
G1 X148.413 Y88.267 E30.89997
G1 X148.204 Y88.774 E30.9255
G1 X148.131 Y89.319 E30.95111
G1 X148.204 Y89.863 E30.97667
G1 X148.413 Y90.372 E31.00229
G1 X148.749 Y90.807 E31.02788
G1 X149.184 Y91.142 E31.05345
G1 X149.693 Y91.353 E31.0791
G0 F6000 X149.797 Y90.963
;TYPE:WALL-OUTER
G1 F1200 X150.237 Y91.021 E31.09977
G1 X150.678 Y90.963 E31.12048
G1 X151.088 Y90.793 E31.14115
G1 X151.441 Y90.522 E31.16187
G1 X151.711 Y90.17 E31.18253
G1 X151.881 Y89.759 E31.20324
G1 X151.939 Y89.319 E31.2239
G1 X151.881 Y88.878 E31.24462
G1 X151.711 Y88.468 E31.26528
G1 X151.441 Y88.115 E31.28598
G1 X151.088 Y87.845 E31.30667
G1 X150.678 Y87.675 E31.32734
G1 X150.237 Y87.617 E31.34805
G1 X149.797 Y87.675 E31.36872
G1 X149.386 Y87.845 E31.38943
G1 X149.034 Y88.115 E31.41008
G1 X148.763 Y88.468 E31.43081
G1 X148.594 Y88.878 E31.45146
G1 X148.535 Y89.319 E31.47217
G1 X148.594 Y89.759 E31.49285
G1 X148.763 Y90.17 E31.51354
G1 X149.034 Y90.522 E31.53422
G1 X149.386 Y90.793 E31.55491
G1 X149.797 Y90.963 E31.57562
G0 F6000 X149.684 Y91.388
G1 F2700 E26.57562
G0 F6000 X149.537 Y94.269
G0 X149.565 Y106.491
G0 X157.565 Y106.491
G0 X157.565 Y110.491
G0 X163.565 Y110.491
G0 X163.565 Y114.147
G0 X157.565 Y114.147
G0 X157.565 Y130.147
G0 X133.909 Y130.147
G0 X134.037 Y130.019
G1 F2700 E31.57562
G1 F1200 X157.437 Y130.019 E32.66522
G1 X157.437 Y114.019 E33.41025
G1 X163.437 Y114.019 E33.68963
G1 X163.437 Y110.619 E33.84795
G1 X157.437 Y110.619 E34.12734
G1 X157.437 Y106.619 E34.31359
G1 X149.437 Y106.619 E34.68611
G1 X149.437 Y94.369 E35.25652
G1 X121.933 Y94.369 E36.53722
G1 X121.933 Y102.519 E36.91672
G1 X134.037 Y102.519 E37.48033
G1 X134.037 Y110.619 E37.8575
G1 X128.037 Y110.619 E38.13689
G1 X128.037 Y114.019 E38.2952
G1 X134.037 Y114.019 E38.57459
G1 X134.037 Y130.019 E39.31962
G1 F2700 E34.31962
G0 F6000 X133.837 Y130.019
G0 X156.661 Y130.607
G0 X156.706 Y132.551
G0 X157.669 Y133.403
G0 X157.79 Y133.245
G1 F2700 E39.31962
G1 F1200 X158.2 Y133.415 E39.34028
G1 X158.641 Y133.473 E39.361
G1 X159.081 Y133.415 E39.38166
G1 X159.492 Y133.245 E39.40237
G1 X159.844 Y132.975 E39.42303
G1 X160.115 Y132.622 E39.44375
G1 X160.284 Y132.211 E39.46444
G1 X160.343 Y131.771 E39.48511
G1 X160.284 Y131.331 E39.50579
G1 X160.115 Y130.92 E39.52648
G1 X159.844 Y130.568 E39.54716
G1 X159.492 Y130.297 E39.56785
G1 X159.081 Y130.127 E39.58856
G1 X158.641 Y130.069 E39.60923
G1 X158.2 Y130.127 E39.62994
G1 X157.79 Y130.297 E39.6506
G1 X157.437 Y130.568 E39.67133
G1 X157.167 Y130.92 E39.69198
G1 X156.997 Y131.331 E39.71269
G1 X156.939 Y131.771 E39.73336
G1 X156.997 Y132.211 E39.75403
G1 X157.167 Y132.622 E39.77474
G1 X157.437 Y132.975 E39.79543
G1 X157.79 Y133.245 E39.81612
G1 F2700 E34.81612
G0 F6000 X157.669 Y133.402
G0 X120.605 Y133.474
G0 X120.594 Y145.536
G0 X120.123 Y145.692
G0 X119.306 Y146.923
G0 X77.604 Y147.243
G0 X78.874 Y147.977
G0 X77.922 Y148.667
;TYPE:WALL-INNER
G1 F2700 E39.81612
G1 F1200 X78.367 Y148.325 E39.84226
G1 X78.708 Y147.881 E39.86833
G1 X78.923 Y147.363 E39.89444
G1 X78.995 Y146.809 E39.92045
G1 X78.923 Y146.254 E39.94651
G1 X78.708 Y145.736 E39.97263
G1 X78.367 Y145.291 E39.99874
G1 X77.922 Y144.951 E40.02481
G1 X77.406 Y144.737 E40.05082
G1 X76.851 Y144.663 E40.0769
G1 X76.295 Y144.737 E40.10301
G1 X75.779 Y144.951 E40.12903
G1 X75.334 Y145.292 E40.15513
G1 X74.993 Y145.737 E40.18124
G1 X74.779 Y146.254 E40.20729
G1 X74.707 Y146.809 E40.23335
G1 X74.779 Y147.363 E40.25936
G1 X74.993 Y147.88 E40.28542
G1 X75.333 Y148.325 E40.31149
G1 X75.779 Y148.667 E40.33767
G1 X76.296 Y148.88 E40.3637
G1 X76.851 Y148.954 E40.38977
G1 X77.405 Y148.88 E40.4158
G1 X77.922 Y148.667 E40.44184
G0 F6000 X77.721 Y148.317
;TYPE:WALL-OUTER
G1 F1200 X78.082 Y148.04 E40.46302
G1 X78.359 Y147.679 E40.48421
G1 X78.533 Y147.259 E40.50538
G1 X78.592 Y146.809 E40.52651
G1 X78.533 Y146.358 E40.54769
G1 X78.359 Y145.938 E40.56886
G1 X78.082 Y145.577 E40.59005
G1 X77.721 Y145.301 E40.61121
G1 X77.301 Y145.127 E40.63238
G1 X76.851 Y145.067 E40.65352
G1 X76.4 Y145.127 E40.6747
G1 X75.98 Y145.301 E40.69587
G1 X75.619 Y145.577 E40.71703
G1 X75.343 Y145.938 E40.73819
G1 X75.169 Y146.358 E40.75936
G1 X75.11 Y146.809 E40.78054
G1 X75.169 Y147.259 E40.80167
G1 X75.343 Y147.679 E40.82284
G1 X75.619 Y148.04 E40.844
G1 X75.98 Y148.317 E40.86519
G1 X76.4 Y148.49 E40.88634
G1 X76.851 Y148.55 E40.90753
G1 X77.301 Y148.49 E40.92867
G1 X77.721 Y148.317 E40.94982
G0 F6000 X77.94 Y148.698
G1 F2700 E35.94982
G0 F6000 X78.48 Y147.75
G0 X78.668 Y147.296
G0 X78.732 Y146.809
G0 X78.668 Y146.321
G0 X78.516 Y145.954
G0 X77.456 Y144.551
G0 X77.071 Y145.967
G0 X80.948 Y110.6
G0 X80.948 Y112.067
G0 X81.493 Y111.804
;TYPE:WALL-INNER
G1 F2700 E40.94982
G1 F1200 X82 Y111.593 E40.97539
G1 X82.437 Y111.259 E41.001
G1 X82.772 Y110.822 E41.02664
G1 X82.982 Y110.314 E41.05224
G1 X83.053 Y109.77 E41.07778
G1 X82.982 Y109.226 E41.10333
G1 X82.771 Y108.717 E41.12898
G1 X82.437 Y108.282 E41.15452
G1 X82.001 Y107.947 E41.18012
G1 X81.493 Y107.736 E41.20574
G1 X80.948 Y107.665 E41.23133
G1 X80.404 Y107.736 E41.25688
G1 X79.895 Y107.947 E41.28253
G1 X79.46 Y108.282 E41.3081
G1 X79.124 Y108.717 E41.33369
G1 X78.915 Y109.226 E41.35931
G1 X78.842 Y109.77 E41.38487
G1 X78.915 Y110.314 E41.41043
G1 X79.124 Y110.822 E41.43601
G1 X79.46 Y111.259 E41.46168
G1 X79.895 Y111.593 E41.48721
G1 X80.404 Y111.804 E41.51287
G1 X80.948 Y111.875 E41.53842
G1 X81.493 Y111.804 E41.56401
G0 F6000 X81.389 Y111.414
;TYPE:WALL-OUTER
G1 F1200 X81.799 Y111.244 E41.58468
G1 X82.152 Y110.974 E41.60537
G1 X82.422 Y110.621 E41.62606
G1 X82.592 Y110.21 E41.64677
G1 X82.65 Y109.77 E41.66744
G1 X82.592 Y109.33 E41.6881
G1 X82.422 Y108.919 E41.70882
G1 X82.152 Y108.567 E41.72947
G1 X81.799 Y108.296 E41.75019
G1 X81.389 Y108.126 E41.77086
G1 X80.948 Y108.068 E41.79157
G1 X80.508 Y108.126 E41.81224
