;FLAVOR:Marlin
;TIME:4023
;Filament used: 3.89129m
;Layer height: 0.28
;MINX:92.085
;MINY:88.58
;MINZ:0.28
;MAXX:127.05
;MAXY:131.506
;MAXZ:30.24
;Generated with Creality Slicer 4.8.2-177
M140 S65
M105
M190 S65
M104 S200
M105
M109 S200
M82 ;absolute extrusion mode
M201 X500.00 Y500.00 Z100.00 E5000.00 ;Setup machine max acceleration
M203 X500.00 Y500.00 Z10.00 E50.00 ;Setup machine max feedrate
M204 P500.00 R1000.00 T500.00 ;Setup Print/Retract/Travel acceleration
M205 X8.00 Y8.00 Z0.40 E5.00 ;Setup Jerk
M220 S100 ;Reset Feedrate
M221 S100 ;Reset Flowrate

G28 ;Home

G92 E0 ;Reset Extruder
G1 Z2.0 F3000 ;Move Z Axis up
G1 X10.1 Y20 Z0.28 F5000.0 ;Move to start position
G1 X10.1 Y200.0 Z0.28 F1500.0 E15 ;Draw the first line
G1 X10.4 Y200.0 Z0.28 F5000.0 ;Move to side a little
G1 X10.4 Y20 Z0.28 F1500.0 E30 ;Draw the second line
G92 E0 ;Reset Extruder
G1 Z2.0 F3000 ;Move Z Axis up

G92 E0
G92 E0
G1 F2700 E-5
;LAYER_COUNT:108
;LAYER:0
M107
;MESH:servo-plate-connector.stl
G0 F6000 X126.65 Y130.245 Z0.28
;TYPE:WALL-INNER
G1 F2700 E0
G1 F1200 X93.35 Y130.245 E1.55059
G1 X93.35 Y89.755 E3.43597
G1 X126.65 Y89.755 E4.98656
G1 X126.65 Y130.245 E6.87194
G0 F6000 X127.05 Y130.645
;TYPE:WALL-OUTER
G1 F1200 X92.95 Y130.645 E8.45978
G1 X92.95 Y89.355 E10.38242
G1 X127.05 Y89.355 E11.97026
G1 X127.05 Y130.645 E13.89289
G0 F6000 X126.78 Y130.375
G0 X126.54 Y129.855
G0 X126.26 Y129.855
;TYPE:SKIN
G1 F1200 X93.74 Y129.855 E15.40716
G1 X93.74 Y90.145 E17.25622
G1 X126.26 Y90.145 E18.77049
G1 X126.26 Y129.855 E20.61955
G1 F2700 E15.61955
G0 F6000 X126.54 Y129.855
G0 X94.055 Y130.135
G0 X94.055 Y129.693
G1 F2700 E20.61955
G1 F1200 X93.899 Y129.537 E20.62983
G0 F6000 X93.899 Y128.972
G1 F1200 X94.621 Y129.693 E20.67734
G0 F6000 X95.187 Y129.693
G1 F1200 X93.899 Y128.406 E20.76212
G0 F6000 X93.899 Y127.84
G1 F1200 X95.752 Y129.693 E20.88415
G0 F6000 X96.318 Y129.693
G1 F1200 X93.899 Y127.274 E21.04344
G0 F6000 X93.899 Y126.709
G1 F1200 X96.884 Y129.693 E21.23998
G0 F6000 X97.449 Y129.693
G1 F1200 X93.899 Y126.143 E21.47375
G0 F6000 X93.899 Y125.577
G1 F1200 X98.015 Y129.693 E21.7448
G0 F6000 X98.581 Y129.693
G1 F1200 X93.899 Y125.012 E22.05308
G0 F6000 X93.899 Y124.446
G1 F1200 X99.146 Y129.693 E22.3986
G0 F6000 X99.712 Y129.693
G1 F1200 X93.899 Y123.88 E22.7814
G0 F6000 X93.899 Y123.315
G1 F1200 X100.278 Y129.693 E23.20144
G0 F6000 X100.844 Y129.693
G1 F1200 X93.899 Y122.749 E23.65874
G0 F6000 X93.899 Y122.183
G1 F1200 X101.409 Y129.693 E24.15329
G0 F6000 X101.975 Y129.693
G1 F1200 X93.899 Y121.618 E24.68507
G0 F6000 X93.899 Y121.052
G1 F1200 X102.541 Y129.693 E25.25413
G0 F6000 X103.106 Y129.693
G1 F1200 X93.899 Y120.486 E25.86043
G0 F6000 X93.899 Y119.921
G1 F1200 X103.672 Y129.693 E26.50396
G0 F6000 X104.238 Y129.693
G1 F1200 X93.899 Y119.355 E27.18477
G0 F6000 X93.899 Y118.789
G1 F1200 X104.803 Y129.693 E27.90282
G0 F6000 X105.369 Y129.693
G1 F1200 X93.899 Y118.224 E28.65811
G0 F6000 X93.899 Y117.658
G1 F1200 X105.935 Y129.693 E29.45066
G0 F6000 X106.5 Y129.693
G1 F1200 X93.899 Y117.092 E30.28046
G0 F6000 X93.899 Y116.526
G1 F1200 X107.066 Y129.693 E31.14753
G0 F6000 X107.632 Y129.693
G1 F1200 X93.899 Y115.961 E32.05184
G0 F6000 X93.899 Y115.395
G1 F1200 X108.197 Y129.693 E32.99339
G0 F6000 X108.763 Y129.693
G1 F1200 X93.899 Y114.829 E33.97221
G0 F6000 X93.899 Y114.264
G1 F1200 X109.329 Y129.693 E34.98827
G0 F6000 X109.895 Y129.693
G1 F1200 X93.899 Y113.698 E36.0416
G0 F6000 X93.899 Y113.132
G1 F1200 X110.46 Y129.693 E37.13217
G0 F6000 X111.026 Y129.693
G1 F1200 X93.899 Y112.567 E38.25998
G0 F6000 X93.899 Y112.001
G1 F1200 X111.592 Y129.693 E39.42506
G0 F6000 X112.157 Y129.693
G1 F1200 X93.899 Y111.435 E40.62738
G0 F6000 X93.899 Y110.87
G1 F1200 X112.723 Y129.693 E41.86694
G0 F6000 X113.289 Y129.693
G1 F1200 X93.899 Y110.304 E43.14377
G0 F6000 X93.899 Y109.738
G1 F1200 X113.854 Y129.693 E44.45784
G0 F6000 X114.42 Y129.693
G1 F1200 X93.899 Y109.173 E45.80915
G0 F6000 X93.899 Y108.607
G1 F1200 X114.986 Y129.693 E47.19773
G0 F6000 X115.551 Y129.693
G1 F1200 X93.899 Y108.041 E48.62355
G0 F6000 X93.899 Y107.475
G1 F1200 X116.117 Y129.693 E50.08665
G0 F6000 X116.683 Y129.693
G1 F1200 X93.899 Y106.91 E51.58698
G0 F6000 X93.899 Y106.344
G1 F1200 X117.248 Y129.693 E53.12455
G0 F6000 X117.814 Y129.693
G1 F1200 X93.899 Y105.778 E54.69939
G0 F6000 X93.899 Y105.213
G1 F1200 X118.38 Y129.693 E56.31148
G0 F6000 X118.945 Y129.693
G1 F1200 X93.899 Y104.647 E57.9608
G0 F6000 X93.899 Y104.081
G1 F1200 X119.511 Y129.693 E59.64739
G0 F6000 X120.077 Y129.693
G1 F1200 X93.899 Y103.516 E61.37123
G0 F6000 X93.899 Y102.95
G1 F1200 X120.643 Y129.693 E63.13233
G0 F6000 X121.208 Y129.693
G1 F1200 X93.899 Y102.384 E64.93067
G0 F6000 X93.899 Y101.819
G1 F1200 X121.774 Y129.693 E66.76626
G0 F6000 X122.34 Y129.693
G1 F1200 X93.899 Y101.253 E68.63911
G0 F6000 X93.899 Y100.687
G1 F1200 X122.905 Y129.693 E70.54921
G0 F6000 X123.471 Y129.693
G1 F1200 X93.899 Y100.122 E72.49654
G0 F6000 X93.899 Y99.556
G1 F1200 X124.037 Y129.693 E74.48115
G0 F6000 X124.602 Y129.693
G1 F1200 X93.899 Y98.99 E76.50299
G0 F6000 X93.899 Y98.425
G1 F1200 X125.168 Y129.693 E78.56208
G0 F6000 X125.734 Y129.693
G1 F1200 X93.899 Y97.859 E80.65843
G0 F6000 X93.899 Y97.293
G1 F1200 X126.099 Y129.493 E82.77886
G0 F6000 X126.099 Y128.928
G1 F1200 X93.899 Y96.727 E84.89932
G0 F6000 X93.899 Y96.162
G1 F1200 X126.099 Y128.362 E87.01974
G0 F6000 X126.099 Y127.796
G1 F1200 X93.899 Y95.596 E89.14017
G0 F6000 X93.899 Y95.03
G1 F1200 X126.099 Y127.231 E91.26062
G0 F6000 X126.099 Y126.665
G1 F1200 X93.899 Y94.465 E93.38105
G0 F6000 X93.899 Y93.899
G1 F1200 X126.099 Y126.099 E95.50147
G0 F6000 X126.099 Y125.534
G1 F1200 X93.899 Y93.333 E97.62193
G0 F6000 X93.899 Y92.768
G1 F1200 X126.099 Y124.968 E99.74236
G0 F6000 X126.099 Y124.402
G1 F1200 X93.899 Y92.202 E101.86278
G0 F6000 X93.899 Y91.636
G1 F1200 X126.099 Y123.837 E103.98324
G0 F6000 X126.099 Y123.271
G1 F1200 X93.899 Y91.071 E106.10366
G0 F6000 X93.899 Y90.505
G1 F1200 X126.099 Y122.705 E108.22409
G0 F6000 X126.099 Y122.139
G1 F1200 X94.265 Y90.305 E110.32041
G0 F6000 X94.83 Y90.305
G1 F1200 X126.099 Y121.574 E112.37953
G0 F6000 X126.099 Y121.008
G1 F1200 X95.396 Y90.305 E114.40137
G0 F6000 X95.962 Y90.305
G1 F1200 X126.099 Y120.442 E116.38595
G0 F6000 X126.099 Y119.877
G1 F1200 X96.527 Y90.305 E118.33331
G0 F6000 X97.093 Y90.305
G1 F1200 X126.099 Y119.311 E120.24341
G0 F6000 X126.099 Y118.745
G1 F1200 X97.659 Y90.305 E122.11623
G0 F6000 X98.224 Y90.305
G1 F1200 X126.099 Y118.18 E123.95185
G0 F6000 X126.099 Y117.614
G1 F1200 X98.79 Y90.305 E125.75019
G0 F6000 X99.356 Y90.305
G1 F1200 X126.099 Y117.048 E127.51126
G0 F6000 X126.099 Y116.483
G1 F1200 X99.921 Y90.305 E129.23513
G0 F6000 X100.487 Y90.305
G1 F1200 X126.099 Y115.917 E130.92172
G0 F6000 X126.099 Y115.351
G1 F1200 X101.053 Y90.305 E132.57105
G0 F6000 X101.619 Y90.305
G1 F1200 X126.099 Y114.786 E134.18313
G0 F6000 X126.099 Y114.22
G1 F1200 X102.184 Y90.305 E135.75797
G0 F6000 X102.75 Y90.305
G1 F1200 X126.099 Y113.654 E137.29554
G0 F6000 X126.099 Y113.089
G1 F1200 X103.316 Y90.305 E138.79588
G0 F6000 X103.881 Y90.305
G1 F1200 X126.099 Y112.523 E140.25897
G0 F6000 X126.099 Y111.957
G1 F1200 X104.447 Y90.305 E141.68479
G0 F6000 X105.013 Y90.305
G1 F1200 X126.099 Y111.391 E143.07334
G0 F6000 X126.099 Y110.826
G1 F1200 X105.578 Y90.305 E144.42468
G0 F6000 X106.144 Y90.305
G1 F1200 X126.099 Y110.26 E145.73875
G0 F6000 X126.099 Y109.694
G1 F1200 X106.71 Y90.305 E147.01555
G0 F6000 X107.275 Y90.305
G1 F1200 X126.099 Y109.129 E148.25515
G0 F6000 X126.099 Y108.563
G1 F1200 X107.841 Y90.305 E149.45747
G0 F6000 X108.407 Y90.305
G1 F1200 X126.099 Y107.997 E150.62251
G0 F6000 X126.099 Y107.432
G1 F1200 X108.972 Y90.305 E151.75036
G0 F6000 X109.538 Y90.305
G1 F1200 X126.099 Y106.866 E152.84093
G0 F6000 X126.099 Y106.3
G1 F1200 X110.104 Y90.305 E153.89422
G0 F6000 X110.669 Y90.305
G1 F1200 X126.099 Y105.735 E154.91032
G0 F6000 X126.099 Y105.169
G1 F1200 X111.235 Y90.305 E155.88914
G0 F6000 X111.801 Y90.305
G1 F1200 X126.099 Y104.603 E156.83068
G0 F6000 X126.099 Y104.038
G1 F1200 X112.367 Y90.305 E157.73499
G0 F6000 X112.932 Y90.305
G1 F1200 X126.099 Y103.472 E158.60206
G0 F6000 X126.099 Y102.906
G1 F1200 X113.498 Y90.305 E159.43186
G0 F6000 X114.064 Y90.305
G1 F1200 X126.099 Y102.34 E160.22438
G0 F6000 X126.099 Y101.775
G1 F1200 X114.629 Y90.305 E160.9797
G0 F6000 X115.195 Y90.305
G1 F1200 X126.099 Y101.209 E161.69775
G0 F6000 X126.099 Y100.643
G1 F1200 X115.761 Y90.305 E162.37853
G0 F6000 X116.326 Y90.305
G1 F1200 X126.099 Y100.078 E163.02209
G0 F6000 X126.099 Y99.512
G1 F1200 X116.892 Y90.305 E163.62839
G0 F6000 X117.458 Y90.305
G1 F1200 X126.099 Y98.946 E164.19742
G0 F6000 X126.099 Y98.381
G1 F1200 X118.023 Y90.305 E164.72923
G0 F6000 X118.589 Y90.305
G1 F1200 X126.099 Y97.815 E165.22378
G0 F6000 X126.099 Y97.249
G1 F1200 X119.155 Y90.305 E165.68105
G0 F6000 X119.72 Y90.305
G1 F1200 X126.099 Y96.684 E166.10112
G0 F6000 X126.099 Y96.118
G1 F1200 X120.286 Y90.305 E166.48392
G0 F6000 X120.852 Y90.305
G1 F1200 X126.099 Y95.552 E166.82944
G0 F6000 X126.099 Y94.987
G1 F1200 X121.418 Y90.305 E167.13773
G0 F6000 X121.983 Y90.305
G1 F1200 X126.099 Y94.421 E167.40877
G0 F6000 X126.099 Y93.855
G1 F1200 X122.549 Y90.305 E167.64255
G0 F6000 X123.115 Y90.305
G1 F1200 X126.099 Y93.29 E167.83908
G0 F6000 X126.099 Y92.724
G1 F1200 X123.68 Y90.305 E167.99838
G0 F6000 X124.246 Y90.305
G1 F1200 X126.099 Y92.158 E168.1204
G0 F6000 X126.099 Y91.592
G1 F1200 X124.812 Y90.305 E168.20515
G0 F6000 X125.377 Y90.305
G1 F1200 X126.099 Y91.027 E168.2527
G0 F6000 X126.099 Y90.461
G1 F1200 X125.943 Y90.305 E168.26297
G0 F6000 X125.943 Y89.955
G1 F2700 E163.26297
;MESH:NONMESH
G0 F300 X125.943 Y89.955 Z0.56
G0 F6000 X125.943 Y89.865
G0 X126.468 Y89.937
G0 X126.65 Y130.245
;TIME_ELAPSED:196.210360
;LAYER:1
M106 S85
;TYPE:WALL-INNER
;MESH:servo-plate-connector.stl
G1 F2700 E168.26297
G1 F1500 X93.35 Y130.245 E169.81356
G1 X93.35 Y89.755 E171.69894
G1 X126.65 Y89.755 E173.24953
G1 X126.65 Y130.245 E175.13491
G0 F7500 X127.05 Y130.645
;TYPE:WALL-OUTER
G1 F1500 X92.95 Y130.645 E176.72275
G1 X92.95 Y89.355 E178.64539
G1 X127.05 Y89.355 E180.23322
G1 X127.05 Y130.645 E182.15586
G0 F7500 X126.78 Y130.375
G0 X126.54 Y129.855
G0 X126.26 Y129.855
;TYPE:SKIN
G1 F1500 X93.74 Y129.855 E183.67013
G1 X93.74 Y90.145 E185.51919
G1 X126.26 Y90.145 E187.03346
G1 X126.26 Y129.855 E188.88252
G0 F7500 X125.995 Y129.694
G1 F1500 X126.099 Y129.59 E188.88937
G0 F7500 X126.099 Y129.025
G1 F1500 X125.429 Y129.694 E188.93346
G0 F7500 X124.863 Y129.694
G1 F1500 X126.099 Y128.459 E189.01482
G0 F7500 X126.099 Y127.893
G1 F1500 X124.298 Y129.694 E189.13342
G0 F7500 X123.732 Y129.694
G1 F1500 X126.099 Y127.328 E189.28926
G0 F7500 X126.099 Y126.762
G1 F1500 X123.166 Y129.694 E189.48237
G0 F7500 X122.601 Y129.694
G1 F1500 X126.099 Y126.196 E189.71271
G0 F7500 X126.099 Y125.63
G1 F1500 X122.035 Y129.694 E189.98034
G0 F7500 X121.469 Y129.694
G1 F1500 X126.099 Y125.065 E190.2852
G0 F7500 X126.099 Y124.499
G1 F1500 X120.903 Y129.694 E190.62733
G0 F7500 X120.338 Y129.694
G1 F1500 X126.099 Y123.933 E191.0067
G0 F7500 X126.099 Y123.368
G1 F1500 X119.772 Y129.694 E191.42331
G0 F7500 X119.206 Y129.694
G1 F1500 X126.099 Y122.802 E191.87719
G0 F7500 X126.099 Y122.236
G1 F1500 X118.641 Y129.694 E192.36832
G0 F7500 X118.075 Y129.694
G1 F1500 X126.099 Y121.671 E192.89668
G0 F7500 X126.099 Y121.105
G1 F1500 X117.509 Y129.694 E193.46231
G0 F7500 X116.944 Y129.694
G1 F1500 X126.099 Y120.539 E194.06518
G0 F7500 X126.099 Y119.974
G1 F1500 X116.378 Y129.694 E194.7053
G0 F7500 X115.812 Y129.694
G1 F1500 X126.099 Y119.408 E195.38268
G0 F7500 X126.099 Y118.842
G1 F1500 X115.247 Y129.694 E196.0973
G0 F7500 X114.681 Y129.694
G1 F1500 X126.099 Y118.277 E196.84916
G0 F7500 X126.099 Y117.711
G1 F1500 X114.115 Y129.694 E197.6383
G0 F7500 X113.55 Y129.694
G1 F1500 X126.099 Y117.145 E198.46467
G0 F7500 X126.099 Y116.579
G1 F1500 X112.984 Y129.694 E199.32832
G0 F7500 X112.418 Y129.694
G1 F1500 X126.099 Y116.014 E200.2292
G0 F7500 X126.099 Y115.448
G1 F1500 X111.852 Y129.694 E201.16736
G0 F7500 X111.287 Y129.694
G1 F1500 X126.099 Y114.882 E202.14275
G0 F7500 X126.099 Y114.317
G1 F1500 X110.721 Y129.694 E203.15539
G0 F7500 X110.155 Y129.694
G1 F1500 X126.099 Y113.751 E204.20529
G0 F7500 X126.099 Y113.185
G1 F1500 X109.59 Y129.694 E205.29244
G0 F7500 X109.024 Y129.694
G1 F1500 X126.099 Y112.62 E206.41682
G0 F7500 X126.099 Y112.054
G1 F1500 X108.458 Y129.694 E207.57848
G0 F7500 X107.893 Y129.694
G1 F1500 X126.099 Y111.488 E208.77738
G0 F7500 X126.099 Y110.923
G1 F1500 X107.327 Y129.694 E210.01351
G0 F7500 X106.761 Y129.694
G1 F1500 X126.099 Y110.357 E211.28692
G0 F7500 X126.099 Y109.791
G1 F1500 X106.196 Y129.694 E212.59757
G0 F7500 X105.63 Y129.694
G1 F1500 X126.099 Y109.226 E213.94545
G0 F7500 X126.099 Y108.66
G1 F1500 X105.064 Y129.694 E215.33061
G0 F7500 X104.499 Y129.694
G1 F1500 X126.099 Y108.094 E216.75301
G0 F7500 X126.099 Y107.529
G1 F1500 X103.933 Y129.694 E218.21264
G0 F7500 X103.367 Y129.694
G1 F1500 X126.099 Y106.963 E219.70955
G0 F7500 X126.099 Y106.397
G1 F1500 X102.802 Y129.694 E221.2437
G0 F7500 X102.236 Y129.694
G1 F1500 X126.099 Y105.831 E222.81512
G0 F7500 X126.099 Y105.266
G1 F1500 X101.67 Y129.694 E224.42378
G0 F7500 X101.104 Y129.694
G1 F1500 X126.099 Y104.7 E226.06971
G0 F7500 X126.099 Y104.134
G1 F1500 X100.539 Y129.694 E227.75288
G0 F7500 X99.973 Y129.694
G1 F1500 X126.099 Y103.569 E229.47328
G0 F7500 X126.099 Y103.003
G1 F1500 X99.407 Y129.694 E231.23097
G0 F7500 X98.842 Y129.694
G1 F1500 X126.099 Y102.437 E233.02589
G0 F7500 X126.099 Y101.872
G1 F1500 X98.276 Y129.694 E234.85804
G0 F7500 X97.71 Y129.694
G1 F1500 X126.099 Y101.306 E236.72748
G0 F7500 X126.099 Y100.74
G1 F1500 X97.145 Y129.694 E238.63415
G0 F7500 X96.579 Y129.694
G1 F1500 X126.099 Y100.175 E240.57806
G0 F7500 X126.099 Y99.609
G1 F1500 X96.013 Y129.694 E242.55924
G0 F7500 X95.448 Y129.694
G1 F1500 X126.099 Y99.043 E244.57766
G0 F7500 X126.099 Y98.478
G1 F1500 X94.882 Y129.694 E246.63332
G0 F7500 X94.316 Y129.694
G1 F1500 X126.099 Y97.912 E248.72625
G0 F7500 X126.099 Y97.346
G1 F1500 X93.9 Y129.545 E250.84661
G0 F7500 X93.9 Y128.979
G1 F1500 X126.099 Y96.78 E252.96697
G0 F7500 X126.099 Y96.215
G1 F1500 X93.9 Y128.414 E255.08733
G0 F7500 X93.9 Y127.848
G1 F1500 X126.099 Y95.649 E257.20769
G0 F7500 X126.099 Y95.083
G1 F1500 X93.9 Y127.282 E259.32805
G0 F7500 X93.9 Y126.717
G1 F1500 X126.099 Y94.518 E261.4484
G0 F7500 X126.099 Y93.952
G1 F1500 X93.9 Y126.151 E263.56876
G0 F7500 X93.9 Y125.585
G1 F1500 X126.099 Y93.386 E265.68912
G0 F7500 X126.099 Y92.821
G1 F1500 X93.9 Y125.02 E267.80948
G0 F7500 X93.9 Y124.454
G1 F1500 X126.099 Y92.255 E269.92984
G0 F7500 X126.099 Y91.689
G1 F1500 X93.9 Y123.888 E272.0502
G0 F7500 X93.9 Y123.322
G1 F1500 X126.099 Y91.124 E274.17053
G0 F7500 X126.099 Y90.558
G1 F1500 X93.9 Y122.757 E276.29089
G0 F7500 X93.9 Y122.191
G1 F1500 X125.787 Y90.304 E278.3907
G0 F7500 X125.221 Y90.304
G1 F1500 X93.9 Y121.625 E280.45324
G0 F7500 X93.9 Y121.06
G1 F1500 X124.655 Y90.304 E282.47854
G0 F7500 X124.09 Y90.304
G1 F1500 X93.9 Y120.494 E284.46661
G0 F7500 X93.9 Y119.928
G1 F1500 X123.524 Y90.304 E286.4174
G0 F7500 X122.958 Y90.304
G1 F1500 X93.9 Y119.363 E288.33095
G0 F7500 X93.9 Y118.797
G1 F1500 X122.393 Y90.304 E290.20726
G0 F7500 X121.827 Y90.304
G1 F1500 X93.9 Y118.231 E292.0463
G0 F7500 X93.9 Y117.666
G1 F1500 X121.261 Y90.304 E293.8481
G0 F7500 X120.696 Y90.304
G1 F1500 X93.9 Y117.1 E295.61267
G0 F7500 X93.9 Y116.534
G1 F1500 X120.13 Y90.304 E297.33996
G0 F7500 X119.564 Y90.304
G1 F1500 X93.9 Y115.969 E299.03001
G0 F7500 X93.9 Y115.403
G1 F1500 X118.999 Y90.304 E300.68282
G0 F7500 X118.433 Y90.304
G1 F1500 X93.9 Y114.837 E302.29836
G0 F7500 X93.9 Y114.271
G1 F1500 X117.867 Y90.304 E303.87663
G0 F7500 X117.301 Y90.304
G1 F1500 X93.9 Y113.706 E305.41766
G0 F7500 X93.9 Y113.14
G1 F1500 X116.736 Y90.304 E306.92145
G0 F7500 X116.17 Y90.304
G1 F1500 X93.9 Y112.574 E308.38796
G0 F7500 X93.9 Y112.009
G1 F1500 X115.604 Y90.304 E309.81724
G0 F7500 X115.039 Y90.304
